X: 7547
T: Cock O' The North
R: jig
M: 6/8
K: Amixolydian
|:a4|c2{d}A6c4 {gBd}B8 {G}A4|{g}A6c2e4 {gfg}f8 e4|{g}c2{d}A6c4 {gcd}c6B2{G}A4|{g}B12 {GdGe}B8 a4|
c2{d}A6c4 {gBd}B8 {G}A4|{g}A6c2e4 {gfg}f8 e4|{g}c2{d}A6c4 {gBd}B8 {e}G4|{g}A12 {gAGAG}A8:|"2nd Part"
|:{gf}g4|{ag}a8 e4 {gfg}f8 e4|{ag}a8 e4 {gfg}f8 e4|{g}c2{d}A6c4 {gcd}c6B2{G}A4|{g}B12 {GdGe}[1 B8 {gf}g4 [2 B6c2d4|
[1 {ag}a8 e4 {gfg}f8 e4|{ag}a8 e4 {gfg}f8 e4|{g}c2{d}A6c4 {gBd}B8 {e}G4|{g}A12 {gAGAG}A8:|
[2 {g}c2e6c4 {gBd}B8 {G}A4|{g}A6c2e4 {gfg}f8 e4|{g}c2{d}A6c4 {gBd}B8 {e}G4|{g}A12 {gAGAG}A8||
|:{ag}a4|c8 {GdGe}c4 {gcd}c6B2{G}A4|{g}c8 {GdG}e4 {gfg}f8 e4|{g}c8 {GdGe}c4 {gcd}c6B2{G}A4|{g}B12 {GdGe}B8 a4|
c8 {GdGe}c4 {gcd}c6B2{G}A4|{g}c8 {GdG}e4 {gfg}f8 e4|{g}c2{d}A6c4 {gBd}B8 {e}G4|{g}A12 {gAGAG}A8:|"4th Part"
|:{gf}g4|{ag}a8 e4 {gfg}f8 e4|{g}f2a6e4 {gfg}f8 e4|c2a6c4 {gcd}c6B2{G}A4|{g}B12 {GdGe}[1 B8 {gf}g4 [2 B6c2d4|
[1 {ag}a8 e4 {gfg}f8 e4|{g}f2a6e4 {gfg}f8 e4|c2{d}A6c4 {gBd}B8 {e}G4|{g}A12 {gAGAG}A8:|
[2 {g}c2e6c4 {gBd}B8 {G}A4|{g}A6c2e4 {gfg}f8 e4|{g}c2{d}A6c4 {gBd}B8 {e}G4|{g}A12 {gAGAG}A8||

